X: 123
T: Missa Sancta Dei genitrix / Gloria
N: Derived from Rue1026b-Missa_Sancta_Dei_genitrix-Gloria.krn
C: Pierre de la Rue
%%abc-version 2.0
%%abcx-abcm2ps-target-version 5.9.1 (29 Sep 2008)
%%abc-creator hum2abc beta
%%abcx-conversion-date 2019/02/17 08:01:14
%%abc-edited-by Jesse Rodin
%%abc-edited-by Jesse Rodin; Chris Gage 10-25-2012
%%abcx-initial-encoding-date 2012/11/12/
%%humdrum-veritas 559359235
%%humdrum-veritas-data 706325044
%%linebreak <none>
%%barnumbers 0
L: 1/4
M: 3/1
Q: 1/2=120
%%staves [1 2 3 4]
V: 1 clef=treble
V: 2 clef=treble-8
V: 3 clef=treble-8
V: 4 clef=bass
K: C
[V:1] z12 | 
[V:2] z12 | 
[V:3] z12 | 
[V:4] z4z4E,4 | 
[V:1] z12 | 
[V:2] z4z4e4 | 
[V:3] z12 | 
[V:4] E,4F,2F,2E,4- | 
[V:1] z4z4E4 | 
[V:2] e4f2f2e4- | 
[V:3] z12 | 
[V:4] E,2C,2D,4E,4 | 
[V:1] E4F2F2E4- | 
[V:2] e2c2d4e4 | 
[V:3] z12 | 
[V:4] A,,2A,2F,2D,2A,2C2- | 
[V:1] E2C2D4E4 | 
[V:2] A2c4B2c4 | 
[V:3] z4z4e4 | 
[V:4] C2B,A,G,4C,2C2- | 
[V:1] A,4A4G4 | 
[V:2] z2c4d2B2c2- | 
[V:3] e4f2f2e4- | 
[V:4] CB,A,G,F,2D,2E,4 | 
[V:1] E3FG2A4^G2 | 
[V:2] c2BAB2A2B4 | 
[V:3] e2c2d4e4 | 
[V:4] A,4G,2F,2E,4 | 
[V:1] A8z4 | 
[V:2] z2d2f3ed2c2 | 
[V:3] A12- | 
[V:4] D,4z2D,2F,3E, | 
[V:1] z12 | 
[V:2] d2A2d2c2d2e2 | 
[V:3] A12- | 
[V:4] D,2C,2D,2A,,2D,2C,2 | 
[V:1] z2A3GF2E2E2 | 
[V:2] f2e3dd4^c2 | 
[V:3] A12- | 
[V:4] D,2A,,2C,2D,2A,,4 | 
[V:1] D2d4d2d2d2 | 
[V:2] d2f4f2f2f2 | 
[V:3] A12 | 
[V:4] D,4D,2D,2D,2D,2 | 
[V:1] c3BA2G2c3B | 
[V:2] e4E4F2G2 | 
[V:3] z12 | 
[V:4] A,,4C,3B,,A,,2G,,2 | 
[V:1] AGc3BA4^G2 | 
[V:2] A2G2c4B4 | 
[V:3] z12 | 
[V:4] C,3B,,A,,G,,C,2D,2E,2 | 
[V:1] A4E4z2A2- | 
[V:2] z2A4A2_B2A2- | 
[V:3] z12 | 
[V:4] A,,2D,4C,2D,4 | 
[V:1] A2A2_B2A4F2 | 
[V:2] A2F2G2A2D4 | 
[V:3] z12 | 
[V:4] A,,4z2A,4A,2 | 
[V:1] G2A2D4E4 | 
[V:2] G2F3Dd4^c2 | 
[V:3] z12 | 
[V:4] _B,2A,4G,2G,2A,2 | 
[V:1] F2F2E2A3GFE | 
[V:2] d2c2c2c2d2c2 | 
[V:3] z12 | 
[V:4] D,2A,2A,2A,2D,2A,2 | 
[V:1] G2F3EE4D2 | 
[V:2] d2c4B2A4 | 
[V:3] z12 | 
[V:4] _B,2A,3G,E,2F,4 | 
[V:1] E2G4G2G2G2 | 
[V:2] G4z2e4e2 | 
[V:3] B8B4- | 
[V:4] E,4z2E,4E,2 | 
[V:1] G4A4A2A2 | 
[V:2] e2e2e2e2e2e2 | 
[V:3] B4c8 | 
[V:4] E,2E,2A,,2A,2A,2A,2 | 
[V:1] G2E2G2G2D2D2 | 
[V:2] e4d2e2B2d2 | 
[V:3] B12 | 
[V:4] E,4z2E,2G,2G,2 | 
[V:1] E2G4FEF2D2- | 
[V:2] c2d2c3BA4 | 
[V:3] G4A8 | 
[V:4] C,2B,,2C,4D,4 | 
[V:1] D2D2D4D4 | 
[V:2] G4G2G2D2D2 | 
[V:3] B12 | 
[V:4] G,,4G,,2G,,2G,,2G,,2 | 
[V:1] C2c4c2A2A2 | 
[V:2] A4A2A2c2c2 | 
[V:3] E12 | 
[V:4] A,,4A,,2A,,2A,,2A,,2 | 
[V:1] G2c2B2A4^G2 | 
[V:2] c2G2B2c2B4 | 
[V:3] E12- | 
[V:4] C,4G,,2A,,2E,4 | 
[V:1] A4E4z4 | 
[V:2] z2A2G2A2B2A2 | 
[V:3] E12- | 
[V:4] A,,4z2A,,2G,,2A,,2- | 
[V:1] z2E3FGEGAB2 | 
[V:2] c4c2c2B2E2- | 
[V:3] E12- | 
[V:4] A,,B,,C,A,,C,D,E,3F,G,E, | 
[V:1] E4z2E3FG2 | 
[V:2] EFGEG2A2B4 | 
[V:3] E12 | 
[V:4] G,A,B,3A,A,4^G,2 | 
[V:1] C2c3BA4GF | 
[V:2] A4c6BA | 
[V:3] F8E4- | 
[V:4] A,4z4A,,4 | 
[V:1] G4G4A4 | 
[V:2] B4e4f3e/f/ | 
[V:3] E4c8 | 
[V:4] E,6C,2F,2A,2 | 
[V:1] B8c4- | 
[V:2] g8g4 | 
[V:3] d4e8 | 
[V:4] G,4G,4C,4 | 
[V:1] c2B2A2G2F4 | 
[V:2] f3ec4d4 | 
[V:3] A12- | 
[V:4] F,6E,2D,4 | 
[V:1] E12 ||  
[V:2] c12 ||  
[V:3] A12 ||  
[V:4] A,,12 ||  
[V:1]  [K:C] [K:clef=treble][M:2/1]z8 | 
[V:2]  [K:C] [K:clef=treble-8][M:2/1]z8 | 
[V:3]  [K:C] [K:clef=treble-8][M:2/1]e8- | 
[V:4]  [K:C] [K:clef=bass][M:2/1]E,3F,G,2A,2- | 
[V:1] z8 | 
[V:2] z8 | 
[V:3] e8 | 
[V:4] A,2G,F,E,2A,2 | 
[V:1] A3Bc2d2- | 
[V:2] z8 | 
[V:3] f8- | 
[V:4] D,4z2D,2- | 
[V:1] d2cBA2d2 | 
[V:2] z8 | 
[V:3] f8 | 
[V:4] D,2D,2D,2D,2 | 
[V:1] G4z2c2- | 
[V:2] E3FG2A2- | 
[V:3] e8 | 
[V:4] C,8 | 
[V:1] c2c2c2c2 | 
[V:2] A2GFE2A2 | 
[V:3] c8 | 
[V:4] A,,8 | 
[V:1] B8 | 
[V:2] D2G4A2 | 
[V:3] d8- | 
[V:4] G,,4G,4- | 
[V:1] G8 | 
[V:2] B4G4 | 
[V:3] d8 | 
[V:4] G,2A,2B,4 | 
[V:1] A4B2c2- | 
[V:2] c4B2AB | 
[V:3] e8 | 
[V:4] A,4G,2A,2- | 
[V:1] c2B2A4 | 
[V:2] cde4d2 | 
[V:3] A8 | 
[V:4] A,2G,2F,4 | 
[V:1] G4z2G2 | 
[V:2] e8 | 
[V:3] B8 | 
[V:4] E,8 | 
[V:1] G2G2G2G2 | 
[V:2] z2e2e2e2 | 
[V:3] c8 | 
[V:4] z2C,2C,2C,2 | 
[V:1] G3AB2c2- | 
[V:2] d2g3fe2- | 
[V:3] B4G4 | 
[V:4] G,4E,4 | 
[V:1] cAd3cBA | 
[V:2] e2dcd4 | 
[V:3] A8 | 
[V:4] F,4F,4 | 
[V:1] G4z4 | 
[V:2] e2g4fe | 
[V:3] B8- | 
[V:4] E,4G,4- | 
[V:1] G6G2 | 
[V:2] d4z2G2- | 
[V:3] B8- | 
[V:4] G,2G,2G,4 | 
[V:1] G3F/E/D4 | 
[V:2] G2G2G4 | 
[V:3] B8 | 
[V:4] z4G,,4 | 
[V:1] C3DE2C2 | 
[V:2] z2c4c2 | 
[V:3] E8- | 
[V:4] A,,3B,,C,2A,,2 | 
[V:1] E3FG2E2 | 
[V:2] c2c2c4 | 
[V:3] E8- | 
[V:4] C,3D,E,2C,2 | 
[V:1] G3AB2G2- | 
[V:2] B2G3AB2 | 
[V:3] E8- | 
[V:4] E,3F,G,2E,2 | 
[V:1] GAB2E2G2- | 
[V:2] E2G3AB2 | 
[V:3] E8 | 
[V:4] G,3A,B,2E,2 | 
[V:1] GABGA4 | 
[V:2] E2e4d2 | 
[V:3] z8 | 
[V:4] G,4F,3E, | 
[V:1] G8 | 
[V:2] e8 | 
[V:3] (3B2B2B2(3c2B2G2 | 
[V:4] E,4(3E,2E,2E,2 | 
[V:1] z8 | 
[V:2] z4z2e2 | 
[V:3] (3A2B2E2B2c2 | 
[V:4] (3F,2E,2C,2(3D,2E,2A,,2 | 
[V:1] G4F2A2 | 
[V:2] e2e2c2d2 | 
[V:3] B2G2A4 | 
[V:4] E,4F,2F,2 | 
[V:1] G2G2D2G2- | 
[V:2] e2E2G2G2 | 
[V:3] B8 | 
[V:4] E,2G,3F,E,D, | 
[V:1] GFEDC2c2 | 
[V:2] G2G2A4 | 
[V:3] E4F2E2 | 
[V:4] C,4z2A,,2 | 
[V:1] B2A4GF | 
[V:2] z2DEFGA2- | 
[V:3] F8 | 
[V:4] D,2D,2D,2D,2 | 
[V:1] E2c4BA | 
[V:2] AGG4^F2 | 
[V:3] G4A4 | 
[V:4] C,4A,,4 | 
[V:1] B8 | 
[V:2] G4z2G2 | 
[V:3] D8 | 
[V:4] G,,8 | 
[V:1] z8 | 
[V:2] G2G2A2A2 | 
[V:3] z8 | 
[V:4] z2C,2C,2C,2 | 
[V:1] z8 | 
[V:2] B8 | 
[V:3] z8 | 
[V:4] D,2D,2E,4- | 
[V:1] z8 | 
[V:2] G4G4 | 
[V:3] z8 | 
[V:4] E,4C,4 | 
[V:1] z8 | 
[V:2] A6G2 | 
[V:3] z8 | 
[V:4] C,4D,4- | 
[V:1] z8 | 
[V:2] F2E2D4 | 
[V:3] z8 | 
[V:4] D,2C,2B,,2A,,2 | 
[V:1] G8 | 
[V:2] D2E3FG2- | 
[V:3] B8 | 
[V:4] G,,2G,3F,E,D, | 
[V:1] G4A4 | 
[V:2] G2^FE^F4 | 
[V:3] c8 | 
[V:4] C,3B,,A,,4 | 
[V:1] D4d4- | 
[V:2] G6FE | 
[V:3] B8 | 
[V:4] G,,8 | 
[V:1] d4c4 | 
[V:2] D4E2C2 | 
[V:3] G4A4 | 
[V:4] B,,4A,,4 | 
[V:1] d8 | 
[V:2] G4D4 | 
[V:3] B8 | 
[V:4] G,,8 | 
[V:1] c8 ||  
[V:2] A8 ||  
[V:3] E8 ||  
[V:4] A,,8 ||  
[V:1]  [K:C] [K:clef=treble][M:3/1]z12 | 
[V:2]  [K:C] [K:clef=treble-8][M:3/1]z12 | 
[V:3]  [K:C] [K:clef=treble-8][M:3/1]z12 | 
[V:4]  [K:C] [K:clef=bass][M:3/1]E,4F,4E,2C,2 | 
[V:1] z12 | 
[V:2] B4c4B2G2 | 
[V:3] z4z4B4 | 
[V:4] D,2E,2A,,2A,2G,F,E,D, | 
[V:1] z12 | 
[V:2] A2B2E2e4d2 | 
[V:3] c2B4G2A2B2 | 
[V:4] C,2G,4E,2C,2G,2- | 
[V:1] B4c4B2G2 | 
[V:2] e4z4e4 | 
[V:3] E8z4 | 
[V:4] G,F,E,D,C,2A,,2E,4 | 
[V:1] A2B2E2A4^G2 | 
[V:2] f2e4c2d2e2 | 
[V:3] z12 | 
[V:4] A,2G,2A,3G,F,2E,2 | 
[V:1] A4z4d4 | 
[V:2] A2dcBAA4^G2 | 
[V:3] z12 | 
[V:4] F,3E,D,2C,2B,,4 | 
[V:1] c3BA2G2F4 | 
[V:2] A3Bcde4d2 | 
[V:3] z12 | 
[V:4] A,,2A,2F,2G,2A,2B,2 | 
[V:1] E4z4z2A2- | 
[V:2] e2c4B2A3B | 
[V:3] z2e2f2e3cd2 | 
[V:4] C3B,A,2G,2F,4 | 
[V:1] AGG4c3BA2- | 
[V:2] c2B4G2c4 | 
[V:3] e8A4 | 
[V:4] E,8F,4 | 
[V:1] A2^G^FG4A4 | 
[V:2] d4G2g2f2e2- | 
[V:3] B8c4 | 
[V:4] D,4E,4A,,4 | 
[V:1] G3AB2c4BA | 
[V:2] e2g3fe4d2 | 
[V:3] B6G2A4 | 
[V:4] E,8F,4 | 
[V:1] G12- | 
[V:2] e8d4 | 
[V:3] B12 | 
[V:4] E,8G,4- | 
[V:1] G12- | 
[V:2] c2e4dcB2c2 | 
[V:3] E12- | 
[V:4] G,2C,2C,4G,3E, | 
[V:1] G12 |]  
[V:2] B12 & e12 |]  
[V:3] E12 |]  
[V:4] E,12 |]  



